!!!OTL: Exultet
!!!SMS: Va C 32:  Rome, Biblioteca Vallicelliana, C 32
!!!EFL: 22/28
**kern	**text
*	*
*staff4	*staff4
!Va C 32	!Va C 32
*clefGv2	*
*k[b-]	*
=1--	=1--
8F	E-
(8G	xul
8A)	.
8G	-tet
8G	iam
8F	an-
(8F	ge
8G)	.
=2-	=2-
4G	li
.	.
4G	-ca
.	.
(8G	turyy-
4A)	.
.	.
(8A	-ba
=3-	=3-
8G)	.
8F	ce-
(8G	lo
8A	.
4G)	.
.	.
4F	-ryyum.
.	.
=4-	=4-
4F	e-
4A	xul
4G	-tent
4G	di-
=5-	=5-
(4G	vi
4A)	.
.	.
(4A	-na
.	.
4G)	.
=6-	=6-
4F	my-
(8G	ste
8A)	.
(8G	ryyi
8F)	.
4F	-a.
=7-	=7-
8F	et
8G	pryyo
8A	tan-
8G	-ti
8G	ryye-
.	.
8G	-gis
8F	vic-
(16F	to
16ryy	.
=8-	=8-
8G)	.
8G	ryyi
8G	-a
8G	tu-
16G	-ba
16G	in-
16F	to
(16G	-net
16A	.
16G	.
16A)	.
16G	.
=9-	=9-
4F	.
.	.
.	.
.	.
(16G	sa-
8A)	.
.	.
(16G	lu
8A	.
.	.
8G)	.
.	.
8F	ta
8F	-ryyis.
=10-	=10-
(8G	Gau-
.	.
8A)	.
8G	de
8G	-at
8G	se
.	.
8G	tan-
8F	-tis
(16F	tel-
16G)	.
=11-	=11-
8G	-lus
.	.
8G	iryy-
8G	ryya
8G	di
(8G	a
8A)	.
(8A	-ta
8G)	.
=12-	=12-
4F	ful-
.	.
(8G	go
8A)	.
(8G	ryyi
8F)	.
4F	-bus.
.	.
=13-	=13-
4F	et
.	.
4G	e-
.	.
4A	teryy
.	.
4G	-ni
=14-	=14-
(8F	ryye-
8G)	.
8G	-gis
8G	splen-
(8G	do
8A)	.
(8A	-ryye
8G)	.
=15-	=15-
4F	lu-
.	.
(8G	stryya
8A	.
4G)	.
.	.
4F	-ta
=16-	=16-
8F	to-
8A	ti
8G	-us
8G	oryy-
8G	-bis
8F	se
(8F	sen-
8G)	.
.	.
=17-	=17-
8G	ti
8G	-at
8G	a-
.	.
8F	mi
.	.
(16G	sis
16A	.
16G	.
8A)	.
.	.
8G	.
.	.
16F	.
=18-	=18-
(16G	-se
8A)	.
.	.
(16G	ca-
8A	.
.	.
8G)	.
.	.
8F	li
.	.
8F	gi
4F	-nem.
.	.
=19-	=19-
(8G	Le-
.	.
8A)	.
.	.
8G	te
8G	-turyy
8G	et
.	.
8G	ma-
.	.
8G	-teryy
8F	ec-
.	.
=20-	=20-
(16F	cle
16G)	.
8G	si
8G	-a
8G	tan-
8F	-ti
.	.
(16F	lu-
16G)	.
8G	mi
8G	-nis
=21-	=21-
8G	a-
.	.
8G	doryy
.	.
(16G	na
16A)	.
(16A	-ta
16G)	.
8F	ful-
.	.
(16G	go
16A)	.
(16G	ryyi
16F)	.
8F	-bus
.	.
=22-	=22-
4F	et
.	.
.	.
.	.
8A	mag-
.	.
8G	-nis
8G	po-
8G	pu
8G	lo
8F	-ryyum
.	.
=23-	=23-
(16F	vo-
16G)	.
8G	ci
8G	-bus
4F	hec
.	.
(16G	au-
16A	.
16G	.
16A)	.
16G	.
16F	.
=24-	=24-
(16G	-la
8A)	.
.	.
(16G	ryye-
16A	.
8G)	.
.	.
4F	sul
.	.
.	.
.	.
4F	-tet.
.	.
.	.
16ryy	.
=25-	=25-
(8G	Qua-
8A)	.
8G	pryyop
8G	-teryy
8G	a-
8G	stan
.	.
8G	ti
8F	-bus
=26-	=26-
(8F	vo-
.	.
8G)	.
4G	-bis
.	.
(8G	fryya-
8A)	.
(8A	-tryyes
8G)	.
=27-	=27-
4F	ca-
(8G	ryyis
8A)	.
(8G	si
8F)	.
4F	-mi.
=28-	=28-
4F	ad
4A	tam
4G	mi-
.	.
4G	-ryyam
.	.
=29-	=29-
8G	sanc-
8F	-ti
(16F	hu-
8G)	.
.	.
8G	-ius
.	.
8G	lu-
.	.
8G	mi
.	.
(8G	-nis
.	.
16A)	.
=30-	=30-
(8A	cla-
.	.
8G)	.
.	.
4F	ryyi
.	.
.	.
(16G	ta
16A	.
8G)	.
4F	-tem.
.	.
=31-	=31-
16F	u-
8A	-na
.	.
16G	me-
8F	-cum
.	.
(16F	que-
16G)	.
16G	-so.
8G	de-
.	.
8G	-i
.	.
16G	om-
16G	ni
16F	po
=32-	=32-
(16F	ten
16G)	.
8G	-tis
.	.
16G	mi-
16G	se
8G	ryyi
.	.
8G	coryy
.	.
8F	di
(16G	-am
16A	.
16G	.
16A)	.
=33-	=33-
16G	.
8F	.
.	.
(8G	in-
.	.
8A)	.
.	.
(16G	vo
8A	.
.	.
8G)	.
.	.
8F	ca
8F	-te.
=34-	=34-
(16G	Ut
16A)	.
16G	qui
8G	me
.	.
8G	non
.	.
8G	me-
.	.
16F	-is
(16F	me-
8G)	.
.	.
8G	ryyi
.	.
16G	-tis
=35-	=35-
8G	in-
.	.
8G	-tryya
.	.
16G	le-
16G	vi
8G	ta
.	.
8F	-ryyum
.	.
(16F	nu-
8G)	.
.	.
8G	me
.	.
16G	-ryyum
=36-	=36-
16G	dig-
8G	na
.	.
8G	-tus
.	.
(8G	est
.	.
16A)	.
(16A	ag-
16G)	.
8F	gryye
.	.
(16G	ga
16A	.
16G)	.
16F	-ryye.
=37-	=37-
8A	lu-
4G	mi
.	.
4G	-nis
.	.
8G	su-
4G	-i
.	.
=38-	=38-
4G	gryya-
4G	ti
.	.
(4G	-a
.	.
4A)	.
.	.
=39-	=39-
(8A	in-
8G)	.
4F	fun
.	.
(8G	den
8A	.
8G)	.
8F	-te.
=40-	=40-
4A	ce-
8G	ryye
4F	-i
.	.
(8F	hu-
8G)	.
8G	-ius
=41-	=41-
8G	lau-
.	.
4G	-dem
.	.
.	.
8F	im-
.	.
(16G	ple
16A	.
8G	.
.	.
8A)	.
.	.
16G	.
16F	.
=42-	=42-
(8G	-ryye
.	.
8A)	.
.	.
(8G	pryye-
.	.
8A	.
.	.
8G)	.
.	.
8F	ci
.	.
8F	pi
.	.
8F	-at.
.	.
=43-	=43-
(8G	Peryy
8A)	.
8G	do-
8G	mi
8G	-num
8G	no-
.	.
8G	-stryyum
8G	ie-
=44-	=44-
8F	-sum
(8F	chryyi-
8G)	.
8G	-stum
(8G	fi-
8A)	.
(8A	li
8G)	.
=45-	=45-
4F	-um
.	.
(8G	su-
8A	.
4G)	.
.	.
4F	-um
.	.
=46-	=46-
8F	vi-
8A	ven
8G	-tem
(16F	se-
16G)	.
8G	-cum
8G	at-
8G	-que
.	.
8F	ryyeg-
=47-	=47-
(16F	nan
8G)	.
.	.
8G	-tem
.	.
8G	in
.	.
8G	u-
.	.
8G	ni
.	.
8G	ta
.	.
8G	-te
.	.
16G	spi-
=48-	=48-
8G	ryyi
.	.
(16G	-tus
8A)	.
.	.
(16A	sanc-
8G)	.
.	.
8F	-ti
.	.
(16G	de-
16A	.
8G)	.
.	.
8F	-us.
.	.
=49-	=49-
8F	peryy
8A	om-
8G	ni
8F	-a
8G	se-
8F	cu
(8G	-la
.	.
8A	.
.	.
=50-	=50-
8G	.
.	.
8A)	.
.	.
8G	.
8F	.
.	.
(8G	se-
8A)	.
(16G	cu
16A	.
8G)	.
=51-	=51-
4F	lo
.	.
4F	-ryyum.
.	.
4E	a-
.	.
4F	-men.
.	.
=52-	=52-
8F	Do-
(8G	mi
8A)	.
(8B-	-nus
8A)	.
(16G	vo-
8A)	.
.	.
8G	.
.	.
16F	.
=53-	=53-
(8G	bi
8A	.
8G)	.
8F	-scum.
8F	Et
(16G	cum
8A)	.
.	.
8A	spi-
.	.
16A	ryyi
=54-	=54-
(8B-	-tu
8G)	.
(8G	tu-
8A	.
8B-	.
8G)	.
(8G	-o.
8F)	.
=55-	=55-
(16F	Suryy-
16G	.
16A)	.
8B-	.
.	.
(16B-	-sum
8A)	.
.	.
(16G	.
16A)	.
8G	.
8F	.
(16G	coryy-
16A)	.
=56-	=56-
(16G	-da.
8F)	.
.	.
8F	Ha-
.	.
(16G	be
8A)	.
(32A	-mus
32B	.
8A)	.
.	.
(16B-	ad
8G)	.
(32A	do-
32B	.
16A)	.
=57-	=57-
(8G	mi
8A	.
8B-	.
4G)	.
.	.
(8G	-num.
4F)	.
.	.
=58-	=58-
(16F	Gryya-
8A)	.
.	.
(16G	ti
16A)	.
16G	.
8F	.
.	.
8G	-as
.	.
(16G	a-
16A	.
8G)	.
.	.
(16A	ga
16B-)	.
=59-	=59-
(16B-	-mus
8A)	.
.	.
(32G	do-
16A	.
.	.
16B-)	.
.	.
16A	mi
.	.
(32G	-no
16A)	.
16G	.
16F	.
(16F	de-
16G)	.
16A	-o
(16G	no-
16A)	.
32G	-stryyo
(32F	dig-
=60-	=60-
16G	.
16A)	.
16B-	.
(16B-	-num
16A)	.
(16B-	et
16G)	.
(16A	iu-
16B-	.
16A)	.
(16G	-stum
16A	.
16B-	.
16G)	.
(16G	est.
16F)	.
=61-	=61-
(16F	[V]e-
8A)	.
.	.
(16G	-ryye
16A)	.
16G	.
8F	.
.	.
8F	Qui-
.	.
8G	-a
8A	dig-
(16A	-num
16G)	.
=62-	=62-
8G	et
(16F	iu-
16G)	.
8G	-stum
.	.
8G	est.
.	.
8G	e-
.	.
8F	-quum
.	.
(16G	et
16A	.
16G	.
16A)	.
=63-	=63-
16G	.
8F	.
.	.
(16G	sa-
8A)	.
(16G	lu
16A	.
8G)	.
8F	ta
8F	-ryye.
8ryy	.
=64-	=64-
(16G	Te
16A)	.
8G	in-
8G	vi
8G	si
8G	bi
.	.
8F	-lem
.	.
(8F	de-
8G)	.
.	.
=65-	=65-
8G	-um
.	.
8G	pa-
.	.
4G	-tryyem
.	.
(8G	om-
8A)	.
(8A	ni
.	.
8G)	.
.	.
=66-	=66-
4F	po
.	.
(8G	ten
.	.
8A	.
.	.
4G)	.
.	.
.	.
.	.
4F	-tem.
.	.
.	.
=67-	=67-
8F	fi-
.	.
8F	li
.	.
8A	um
.	.
8G	-que
.	.
8G	tu-
.	.
8G	-um
.	.
8G	u-
.	.
8F	ni
.	.
=68-	=68-
(8F	ge
.	.
8G)	.
.	.
8G	ni
.	.
8G	-tum
.	.
8G	do-
.	.
16G	mi
16G	-num
8G	no-
.	.
(16G	-stryyum
16A)	.
=69-	=69-
(8A	ie-
.	.
8G)	.
.	.
8F	-sum
.	.
(8G	chryyi-
8A	.
.	.
8G)	.
4F	-stum.
.	.
=70-	=70-
1ryy	.
.	.
.	.
.	.
.	.
.	.
.	.
.	.
.	.
.	.
.	.
=71-	=71-
8A	to-
8G	-to
(8F	coryy-
8G)	.
8G	-dis
8G	ac
(8G	men-
8A)	.
=72-	=72-
(8A	-tis
8G)	.
8F	af-
(8G	fec
8A	.
8G)	.
4F	-tu.
=73-	=73-
8F	et
8A	vo-
4G	-cis
.	.
8G	mi-
8F	ni
.	.
4G	ste
.	.
=74-	=74-
4F	ryyi
.	.
.	.
(8G	-o
8A	.
8G	.
8A)	.
8G	.
.	.
8F	.
.	.
=75-	=75-
(8G	peryy-
8A)	.
(8G	so
8A	.
8G)	.
4F	na
.	.
8F	-ryye.
=76-	=76-
(8G	Qui
.	.
8A)	.
.	.
8G	pryyo
.	.
8G	no-
8G	-bis
8G	ti-
8G	-bi
8G	e-
.	.
=77-	=77-
8G	teryy
8F	-no
(8F	pa-
8G)	.
8G	-tryyi
8G	a-
8G	-de
(8G	de-
=78-	=78-
8A)	.
(8A	bi
8G)	.
8F	-tum
(8G	sol-
8A	.
8G)	.
8F	-vit.
=79-	=79-
8F	et
8A	ve-
8G	te
8G	-ryyis
8F	pi-
(8F	a
8G)	.
8G	cu
=80-	=80-
(16G	-li
8A)	.
.	.
(16A	cau-
8G)	.
.	.
8F	ti
.	.
(16G	o
16A	.
8G)	.
.	.
8F	-nem.
.	.
16G	pi-
16G	-o
=81-	=81-
8F	cryyu-
.	.
(16G	o
16A	.
16G	.
16A)	.
16G	.
16F	.
(16G	-ryye
16A)	.
(16G	de-
16A	.
16G)	.
8F	teryy
.	.
16F	-sit.
=82-	=82-
(4G	Hec
.	.
4A)	.
.	.
4G	sunt
.	.
(4F	e-
.	.
.	.
=83-	=83-
4G)	.
.	.
4G	-nim
.	.
.	.
.	.
(8G	fe-
8A)	.
.	.
(8A	-sta
.	.
8G)	.
.	.
=84-	=84-
4F	pa-
.	.
.	.
.	.
(8G	scha
.	.
8A)	.
(8G	li
8F)	.
4F	-a
.	.
=85-	=85-
4F	in
4F	qui-
4F	-bus
4A	ve-
.	.
=86-	=86-
4G	-ryyus
.	.
(8F	il-
8G)	.
4G	-le
.	.
(8G	ag-
8A)	.
=87-	=87-
(8A	-nus
8G)	.
8F	oc-
(8G	ci
8A)	.
(8G	di
8F)	.
8F	-turyy.
=88-	=88-
8F	e-
.	.
8A	ius
4G	-que
.	.
(8F	san-
8G)	.
4G	-guis
.	.
=89-	=89-
4F	po-
.	.
(8G	-stes
8A	.
8G	.
8A)	.
.	.
8G	.
.	.
8F	.
.	.
=90-	=90-
(8G	con-
8A)	.
(8G	se
8A	.
8G)	.
4F	cryyan
.	.
8F	-turyy.
=91-	=91-
(16G	Hec
.	.
8A)	.
.	.
.	.
.	.
8G	nox
.	.
(8F	est
.	.
8G)	.
.	.
8G	in
.	.
8G	qua
.	.
8G	pryyi-
.	.
16G	-mum
=92-	=92-
8G	pa-
.	.
8F	-tryyes
.	.
(16F	no-
8G)	.
.	.
8G	-stryyos
.	.
8G	fi-
.	.
8G	li
.	.
8G	-os
.	.
16G	is-
=93-	=93-
16F	ryya
(32F	-hel
16G)	.
.	.
8G	e-
.	.
.	.
.	.
32G	duc
(16G	-tos
.	.
8A)	.
.	.
.	.
.	.
(16A	ex
.	.
8G)	.
.	.
.	.
.	.
16F	e-
.	.
(16G	gyp
.	.
16A	.
.	.
16G)	.
.	.
16F	-to.
.	.
=94-	=94-
8A	ryyu-
.	.
8G	-bryyum
.	.
(16F	ma-
8G)	.
.	.
8G	-ryye
.	.
8G	sic-
.	.
8G	-co
.	.
8F	ve-
.	.
(16F	sti
=95-	=95-
8G)	.
8G	gi
.	.
8G	-o
.	.
8F	tryyan-
.	.
(16G	si
16A	.
16G	.
16A)	.
8G	.
8F	.
.	.
=96-	=96-
(8G	-ryye
.	.
8A)	.
(8G	fe-
8A	.
8G)	.
8F	ci
4F	-sti.
.	.
=97-	=97-
(8G	Hec
.	.
8A)	.
8G	i-
.	.
8G	gi
8F	-turyy
(8F	nox
8G)	.
.	.
8G	est
.	.
=98-	=98-
8G	que
4G	pec-
.	.
.	.
.	.
(8G	ca
.	.
8A)	.
(8A	to
8G)	.
8F	-ryyum
.	.
=99-	=99-
(8G	te-
4A)	.
.	.
(8G	ne
.	.
4F)	.
.	.
.	.
.	.
4F	-bryyas.
.	.
.	.
.	.
=100-	=100-
4F	co-
.	.
.	.
8A	lum
4G	-ne
.	.
.	.
8G	il-
8G	lu
8G	mi
=101-	=101-
4F	na
.	.
(16G	tio
16A	.
16G	.
16A)	.
16G	.
8F	.
.	.
(16G	-ne
4A)	.
.	.
.	.
.	.
=102-	=102-
(8G	puryy-
.	.
8A	.
4G)	.
.	.
.	.
4F	ga
.	.
.	.
.	.
4F	-vit.
.	.
=103-	=103-
(8G	Hec
.	.
8A)	.
.	.
8G	nox
.	.
(8F	est
.	.
8G)	.
.	.
8G	que
.	.
8G	ho-
.	.
8G	di
.	.
=104-	=104-
8G	-e
8G	peryy
8G	u-
.	.
8G	ni
.	.
8G	veryy
.	.
8F	-sum
.	.
(16F	mun-
16G)	.
8G	-dum
.	.
=105-	=105-
8G	in
8G	chryyi-
.	.
8G	-sto
.	.
8F	cryye-
.	.
(8F	den
.	.
8G)	.
.	.
4G	-tes
.	.
.	.
=106-	=106-
4G	a
.	.
8G	vi-
8G	ti
4G	-is
.	.
8G	se-
.	.
8G	cu
.	.
=107-	=107-
(16G	-li
8A)	.
.	.
(16A	se-
8G)	.
8F	gryye
(16G	ga
16A	.
8G)	.
8F	-tos
8F	et
=108-	=108-
8F	ca-
.	.
8A	li
.	.
8G	gi
.	.
8G	-ne
8G	pec-
8F	ca
.	.
(16F	to
8G)	.
.	.
16G	-ryyum.
=109-	=109-
8A	ryyed-
.	.
4G	-dit
.	.
.	.
(8F	gryya-
8G)	.
8G	ti
4G	-e.
.	.
=110-	=110-
8G	so-
8F	ci
(8G	-at
8A	.
8G	.
.	.
8A)	.
.	.
8G	.
.	.
8F	.
.	.
=111-	=111-
(8G	sanc-
.	.
8A)	.
.	.
(8G	ti
.	.
8A	.
.	.
8G)	.
.	.
4F	ta
.	.
.	.
.	.
8F	-ti.
.	.
=112-	=112-
(8G	Hec
.	.
4A)	.
.	.
.	.
8G	nox
.	.
(8F	est
.	.
8G)	.
.	.
8G	in
.	.
8G	qua
.	.
=113-	=113-
4F	de-
.	.
(8F	stryyuc
8G)	.
4G	-tis
.	.
(8G	vin-
8A)	.
=114-	=114-
(8A	cu
8G)	.
4F	-lis
.	.
(8G	moryy-
8A	.
8G)	.
8F	-tis.
=115-	=115-
4A	chryyi-
.	.
4G	-stus
4F	ab
.	.
4G	in-
.	.
=116-	=116-
4G	fe
.	.
4F	-ryyis
.	.
.	.
.	.
(8G	vic-
8A	.
8G	.
8A)	.
=117-	=117-
8G	.
.	.
8F	.
(8G	-toryy
8A)	.
(16G	a-
16A	.
8G)	.
8F	scen
8F	-dit.
=118-	=118-
(4G	Ni-
.	.
4A)	.
4G	-chil
.	.
(8F	e-
8G)	.
=119-	=119-
4G	-nim
4G	no-
.	.
(8G	-bis
8A)	.
(8A	na-
8G)	.
=120-	=120-
4F	-sci
.	.
(8G	pryyo-
8A)	.
(8G	fu
8F)	.
4F	-it
.	.
=121-	=121-
4F	ni-
.	.
4F	-si
.	.
4G	ryye-
.	.
4F	di
.	.
=122-	=122-
(8G	-mi
8A	.
8G	.
8A)	.
4G	.
.	.
4F	.
.	.
=123-	=123-
(8G	pryyo-
8A)	.
(8G	fu
8A	.
8G)	.
4F	is
.	.
8F	-set.
=124-	=124-
(8G	O
.	.
4A)	.
.	.
8G	mi-
.	.
4G	-ryya
.	.
4G	ciryy-
.	.
=125-	=125-
4F	-ca
.	.
.	.
.	.
(8F	nos
8G)	.
.	.
8G	tu-
.	.
8G	-e
8G	pi-
.	.
8G	e
.	.
=126-	=126-
(16G	ta
8A)	.
.	.
(16A	-tis
8G)	.
.	.
8F	di-
.	.
(16G	gna
8A)	.
.	.
(16G	ti
8F)	.
.	.
8F	-o.
.	.
=127-	=127-
4A	O
.	.
.	.
.	.
8G	i-
.	.
8G	ne
8G	sti
8G	ma
.	.
8G	bi
.	.
8G	-lis
=128-	=128-
8G	di-
8G	lec
8G	ti
(8G	-o
4A)	.
.	.
.	.
.	.
(8A	ca-
.	.
8G)	.
.	.
=129-	=129-
4F	ryyi
.	.
.	.
.	.
(8G	ta
.	.
8A	.
.	.
4G)	.
.	.
.	.
4F	-tis.
.	.
.	.
.	.
=130-	=130-
8F	ut
8A	seryy-
.	.
4G	-vum
.	.
.	.
.	.
8F	ryye-
.	.
(8F	di
.	.
8G)	.
.	.
8G	me
.	.
=131-	=131-
4G	-ryyes
.	.
8G	fi-
.	.
4F	li
.	.
.	.
.	.
(16G	-um
16A	.
16G	.
16A)	.
16G	.
16F	.
=132-	=132-
(8G	tryya-
.	.
8A)	.
.	.
(8G	di
8A	.
8G)	.
4F	di
.	.
8F	-sti.
=133-	=133-
(4G	O
.	.
4A)	.
.	.
4G	ceryy-
.	.
4G	-te
.	.
=134-	=134-
8G	ne-
.	.
8F	ces
.	.
(8F	sa
.	.
8G)	.
.	.
8G	ryyi
.	.
8G	-um
.	.
(8G	a-
8A)	.
.	.
=135-	=135-
(8A	-de
8G)	.
.	.
8F	pec-
.	.
(8G	ca
8A	.
4G)	.
.	.
.	.
8F	-tum.
=136-	=136-
8F	quod
.	.
8G	chryyi-
.	.
8F	-sti
.	.
(16G	moryy-
16A	.
16G	.
16A)	.
16G	.
16F	.
(8G	-te
.	.
8A)	.
.	.
=137-	=137-
(8G	de-
.	.
8A	.
8G)	.
.	.
8F	le
.	.
8F	-tum
.	.
8F	est.
.	.
(8G	O
.	.
8A)	.
.	.
=138-	=138-
(8A	fe-
.	.
8G)	.
8F	-lix
.	.
(8G	cul-
8A	.
8G)	.
4F	-pa
.	.
=139-	=139-
8F	que
8A	ta-
.	.
8G	-lem
.	.
8F	ac
(8F	tan-
.	.
8G)	.
8G	-tum
8G	me-
=140-	=140-
8G	ryyu
4G	-it
.	.
8G	ha-
8F	be
.	.
(16G	-ryye
16A	.
16G	.
16A)	.
16G	.
16F	.
=141-	=141-
(8G	ryye-
8A)	.
(8G	dem
8A	.
8G)	.
8F	to
4F	-ryyem.
.	.
=142-	=142-
(8G	O
.	.
8A)	.
.	.
8G	be-
8G	a
4F	-ta
.	.
.	.
(8F	nox
.	.
8G)	.
.	.
=143-	=143-
8G	que
8G	so-
8G	-la
8G	me-
.	.
8G	ryyu
.	.
8F	-it
.	.
(16F	sci-
16G)	.
8G	-ryye
.	.
=144-	=144-
(8G	tem-
.	.
8A)	.
.	.
(8A	-pus
.	.
8G)	.
8F	et
.	.
(16G	ho-
16A	.
8G)	.
8F	-ryyam.
=145-	=145-
8F	in
4A	qua
.	.
8G	chryyi-
8G	-stus
8F	ab
8G	in-
.	.
8F	fe
.	.
=146-	=146-
(8G	-ryyis
8A	.
8G	.
8A)	.
4G	.
.	.
.	.
.	.
4F	.
.	.
.	.
.	.
=147-	=147-
(8G	ryye-
.	.
8A)	.
(8G	suryy
.	.
8A	.
8G)	.
8F	ryye
.	.
4F	-xit.
.	.
.	.
.	.
=148-	=148-
(8G	Hec
.	.
8A)	.
.	.
8G	nox
.	.
(8F	est
.	.
8G)	.
.	.
8G	de
.	.
8F	qua
.	.
(16F	scryyip-
16G)	.
=149-	=149-
8G	-tum
.	.
8G	est.
8F	et
8A	nox
8G	di-
8G	-es
.	.
(8G	il-
8A)	.
.	.
=150-	=150-
(8A	lu
.	.
8G)	.
.	.
8F	mi
.	.
(8G	na
.	.
8A)	.
.	.
(8G	bi
.	.
8F)	.
.	.
8F	-turyy.
=151-	=151-
8F	et
.	.
8A	nox
8G	il-
8G	lu
8G	mi
8G	na
8G	ti
.	.
8F	-o
.	.
=152-	=152-
(8F	me-
.	.
8G)	.
8G	-a
8G	in
8F	de-
.	.
(16G	li
16A	.
16G	.
16A)	.
16G	.
16F	.
=153-	=153-
(8G	ci
.	.
8A)	.
(8G	-is
.	.
8A	.
8G)	.
8F	me-
4F	-is.
.	.
=154-	=154-
(8G	Hu-
4A)	.
.	.
8G	-ius
(8F	i-
8G)	.
8G	gi
8G	-turyy
=155-	=155-
4G	sanc-
.	.
.	.
.	.
4G	ti
.	.
.	.
.	.
4G	fi
.	.
.	.
.	.
(8G	ca
.	.
8A)	.
.	.
=156-	=156-
(8A	ti
.	.
8G)	.
.	.
8F	-o
.	.
(8G	noc-
.	.
8A	.
.	.
8G)	.
.	.
4F	-tis
.	.
.	.
=157-	=157-
(8G	fu-
.	.
8A	.
4G)	.
.	.
.	.
4F	-gat
.	.
(8G	sce-
8A)	.
.	.
=158-	=158-
(8G	le
8F)	.
4F	-ryya.
.	.
(8G	cul-
4A	.
.	.
8G)	.
=159-	=159-
4F	-pas
.	.
(8G	la-
8A	.
4G)	.
4F	-vat.
=160-	=160-
8A	ryyed-
.	.
8G	-dit
.	.
8G	in-
8G	no
.	.
(8G	cen
8A)	.
.	.
(8A	ti
.	.
8G)	.
.	.
=161-	=161-
8F	-am
.	.
(8G	lap-
.	.
8A	.
.	.
8G)	.
4F	-sis.
.	.
.	.
.	.
4A	me-
.	.
=162-	=162-
(8A	-stis
.	.
8G)	.
8F	le-
.	.
(8G	ti
8A)	.
(8G	ti
8F)	.
8F	-am.
=163-	=163-
4A	fu-
.	.
4F	-gat
.	.
(4G	o-
.	.
4A)	.
.	.
.	.
=164-	=164-
(8G	di
8F)	.
4F	-a.
.	.
8G	con-
8A	coryy
(8A	di
8G)	.
.	.
=165-	=165-
4F	-am
.	.
(8G	pa-
8A	.
4G)	.
.	.
4F	-ryyat.
=166-	=166-
4F	et
.	.
(8G	curyy-
.	.
8A	.
.	.
8G	.
.	.
8A)	.
8G	.
.	.
8F	.
=167-	=167-
(4G	-vat
.	.
4A)	.
.	.
(8G	im-
8A	.
4G)	.
.	.
=168-	=168-
4F	pe
.	.
.	.
.	.
4F	ryyi
.	.
.	.
.	.
4F	-a.
.	.
.	.
.	.
4ryy	.
.	.
.	.
.	.
=169-	=169-
(8G	In
.	.
8A)	.
.	.
4G	hu-
.	.
.	.
.	.
4G	-ius
.	.
.	.
.	.
4G	i-
.	.
.	.
.	.
=170-	=170-
4G	gi
.	.
.	.
.	.
4G	-turyy
.	.
.	.
.	.
4G	noc-
.	.
.	.
.	.
4F	-tis
.	.
.	.
.	.
=171-	=171-
(4F	gryya-
.	.
.	.
.	.
4G)	.
.	.
.	.
.	.
4G	ti
.	.
.	.
.	.
4G	-a
.	.
.	.
.	.
=172-	=172-
8G	su-
.	.
8G	sci
8G	-pe
.	.
8G	sanc-
.	.
8F	-te
(16F	pa-
8G)	.
.	.
8G	-teryy
.	.
16G	in-
=173-	=173-
8G	cen
8F	-si
(8F	hu-
.	.
8G)	.
.	.
8G	-ius
.	.
16G	sa-
16G	cryyi
8G	fi
.	.
8G	ci
.	.
=174-	=174-
(16G	-um
8A)	.
.	.
(16A	ve-
8G)	.
8F	speryy
(8G	ti
.	.
8A	.
8G)	.
8F	-num.
=175-	=175-
8F	quod
8A	ti-
8G	-bi
8G	in
8F	hac
(16F	ce-
16G)	.
8G	ryye
.	.
8G	-i
.	.
=176-	=176-
8G	o-
8G	bla
8G	ti
(16G	o
8A)	.
.	.
(16A	-ne
8G)	.
.	.
16F	sol-
(16G	lem
16A	.
16G)	.
=177-	=177-
8F	-ni
.	.
8F	peryy
.	.
8F	mi-
.	.
8G	ni
8A	stryyo
.	.
8G	-ryyum
(16F	ma-
16G)	.
8G	-nus
.	.
=178-	=178-
8G	de
8G	o-
8G	pe
.	.
8G	ryyi
.	.
4F	-bus
.	.
(8F	a-
.	.
8G)	.
.	.
=179-	=179-
4G	-pum.
.	.
8G	sa-
8G	cryyo
8G	sanc
8F	-ta
.	.
(16G	ryyed-
16A	.
16G	.
16A)	.
=180-	=180-
16G	.
8F	.
.	.
(8G	-dit
.	.
16A)	.
(16G	ec-
16A	.
8G)	.
8F	cle
8F	si
8F	-a.
=181-	=181-
(8G	Sed
.	.
8A)	.
.	.
8G	iam
.	.
8G	co-
.	.
8G	lum
.	.
8F	-ne
.	.
(8F	hu-
.	.
8G)	.
=182-	=182-
4G	-ius
.	.
4G	pryye-
.	.
.	.
.	.
(8G	co
8A)	.
(8A	ni
8G)	.
=183-	=183-
4F	-a
.	.
(8G	no-
8A)	.
(8G	vi
8F)	.
4F	-mus.
=184-	=184-
8F	quam
8F	in
8F	ho-
8A	no
8G	-ryye
.	.
(8F	de-
.	.
8G)	.
8G	-i
.	.
=185-	=185-
8G	ryyu-
.	.
8G	ti
.	.
8F	-lans
.	.
.	.
(8G	i-
.	.
.	.
.	.
8A	.
.	.
.	.
.	.
8G	.
.	.
.	.
16A)	.
.	.
8G	.
.	.
.	.
.	.
16F	.
.	.
=186-	=186-
(8G	-gnis
.	.
.	.
.	.
8A)	.
.	.
(8G	ac-
.	.
.	.
8A	.
.	.
.	.
8G)	.
.	.
8F	cen
.	.
4F	-dit.
.	.
.	.
.	.
.	.
.	.
.	.
=187-	=187-
(8G	Qui
4A)	.
.	.
4G	li-
.	.
4G	-cet
.	.
8G	di-
=188-	=188-
4G	vi
.	.
4G	-sus
.	.
2ryy	.
.	.
.	.
.	.
=189-	=189-
4F	in
.	.
(4F	paryy-
.	.
4G)	.
.	.
.	.
4G	-tes
.	.
=190-	=190-
8G	mu-
8G	tu
8G	a
8G	-ti
8G	ta-
8F	-men
(8F	lu-
8G)	.
=191-	=191-
8G	mi
8G	-nis
8G	de-
.	.
8F	tryyi
.	.
(16G	men
16A	.
16G	.
16A)	.
8G	.
.	.
8F	.
.	.
=192-	=192-
(8G	-ta
.	.
8A)	.
.	.
(8G	non
.	.
8A	.
.	.
8G)	.
.	.
4F	no-
.	.
.	.
8F	-vit.
.	.
=193-	=193-
(8G	A-
.	.
4A)	.
.	.
.	.
4G	li
.	.
4G	-turyy
.	.
8ryy	.
=194-	=194-
4G	li-
.	.
(8G	quan
8A)	.
(8A	ti
8G)	.
4F	-bus
.	.
=195-	=195-
(4G	ce-
.	.
4A	.
.	.
.	.
.	.
4G)	.
.	.
.	.
4F	-ryyis.
.	.
=196-	=196-
8F	quam
.	.
8F	in
.	.
8G	sub-
.	.
8A	stan
.	.
16G	ti
8G	-am
.	.
16G	pryye-
16G	ti
8G	o
.	.
16G	-se
=197-	=197-
16G	hu-
8F	-ius
.	.
(16F	lam-
16G)	.
8G	pa
.	.
16G	-dis
16G	a-
16F	-pis
(16G	ma-
16A	.
16G	.
16A)	.
16G	.
16F	.
=198-	=198-
(8G	-teryy
.	.
8A)	.
.	.
(8G	e-
.	.
8A	.
.	.
8G)	.
.	.
8F	du
.	.
4F	-xit.
.	.
.	.
=199-	=199-
(8G	A-
.	.
8A)	.
4G	-pis
.	.
(8F	ce-
8G)	.
4G	te
.	.
.	.
=200-	=200-
4G	-ryyis
.	.
.	.
4G	que
.	.
.	.
.	.
4G	sub-
.	.
.	.
.	.
8G	iec
.	.
8G	-ta
=201-	=201-
4F	sunt
.	.
(8F	ho-
.	.
8G)	.
.	.
4G	mi
.	.
.	.
.	.
4G	-ni
.	.
.	.
.	.
=202-	=202-
4G	a-
.	.
4G	ni
.	.
.	.
.	.
4G	man
.	.
4F	ti
.	.
=203-	=203-
(8G	-bus
.	.
8A	.
.	.
8G	.
8A)	.
.	.
8G	.
.	.
8F	.
.	.
(8G	an-
8A)	.
=204-	=204-
(8G	te
8A	.
4G)	.
.	.
4F	cel
.	.
4F	-lit.
.	.
=205-	=205-
(8G	Cum
.	.
8A)	.
8G	sit
(8F	e-
8G)	.
8G	-nim
.	.
8G	mi-
8G	ni
=206-	=206-
8F	-ma
.	.
(8F	coryy-
.	.
8G)	.
8G	po
.	.
(8G	-ryyis
.	.
8A)	.
.	.
(8A	paryy-
8G)	.
.	.
=207-	=207-
4F	vi
.	.
.	.
(8G	ta
.	.
8A	.
.	.
4G)	.
.	.
.	.
4F	-te
.	.
=208-	=208-
8F	in-
8A	gen
4G	-tes
.	.
(8F	a-
8G)	.
8G	ni
8G	-mos
=209-	=209-
8G	an-
8G	gu
4G	-sto
.	.
.	.
.	.
(8G	veryy-
.	.
8A)	.
(8A	-sat
.	.
8G)	.
.	.
=210-	=210-
4F	in
.	.
(8G	pec-
8A)	.
(8G	to
8F)	.
4F	-ryye.
.	.
=211-	=211-
8A	vi-
.	.
8G	ryyi
(8G	-bus
8A)	.
(8A	in-
8G)	.
8F	be
(8G	cil
=212-	=212-
8A	.
8G)	.
8F	-lis
8F	sed
.	.
(16G	foryy-
16A	.
16G	.
16A)	.
8G	.
.	.
8F	.
.	.
=213-	=213-
(8G	-tis
8A)	.
(8G	in-
.	.
8A	.
8G)	.
8F	ge
8F	ni
8F	-o.
=214-	=214-
(8G	His
4A)	.
.	.
4G	ex-
.	.
.	.
4G	plo
.	.
.	.
.	.
8G	ryya
.	.
=215-	=215-
4G	-ta
.	.
.	.
.	.
4G	tem-
.	.
.	.
.	.
4G	po
.	.
.	.
.	.
4F	-ryyum
.	.
.	.
.	.
=216-	=216-
(4F	vi-
.	.
4G)	.
.	.
.	.
4G	-ces
.	.
.	.
.	.
4ryy	.
.	.
.	.
.	.
=217-	=217-
4G	cum
.	.
8G	ca-
8G	ni
8G	ti
4G	-em
.	.
8G	pryyu-
=218-	=218-
8F	i
(8F	no
8G)	.
.	.
8G	-sam
.	.
8G	hy-
.	.
(8G	beryy
.	.
8A)	.
.	.
(8A	-na
.	.
=219-	=219-
8G)	.
8F	po-
(8G	su
8A)	.
(8G	e
.	.
8F)	.
.	.
4F	-ryyint.
.	.
.	.
=220-	=220-
8F	et
.	.
8F	gla-
8G	ci
8A	a
8G	-le
8G	se-
.	.
8G	ni
.	.
8G	-um
.	.
=221-	=221-
8G	veryy-
.	.
8F	-ni
(8F	tem-
.	.
8G)	.
8G	po
.	.
8G	-ryyis
8G	mo-
.	.
8G	de
.	.
=222-	=222-
(16G	ryya
8A)	.
.	.
(16A	-ta
8G)	.
.	.
8F	de-
(16G	teryy
8A)	.
.	.
(16G	se
8F)	.
.	.
8F	-ryyint.
=223-	=223-
8A	sta-
.	.
4G	-tim
.	.
8G	pryyo-
.	.
8G	de
8G	un
4G	-di
.	.
=224-	=224-
8G	ad
.	.
8G	la-
.	.
8G	bo
8F	-ryyem
(16G	cu-
16A	.
16G	.
16A)	.
16G	.
8F	.
.	.
(16G	-ryya
=225-	=225-
4A)	.
.	.
(8G	suc-
.	.
8A	.
4G)	.
.	.
.	.
8F	ce
.	.
8F	-dit.
=226-	=226-
(8G	Di-
.	.
8A)	.
.	.
8G	speryy
.	.
8G	se
.	.
4G	-que
.	.
.	.
.	.
4F	peryy
.	.
.	.
.	.
=227-	=227-
(8F	a-
.	.
8G)	.
.	.
8G	-gryyos
.	.
8G	li-
8G	bryya
8G	-tis
(8G	pau-
8A)	.
=228-	=228-
(8A	lu
8G)	.
8F	-lum
(8G	pen-
8A	.
.	.
8G)	.
4F	-nis
.	.
=229-	=229-
4A	cryyu-
4G	ryyi
4G	-bus
.	.
4ryy	.
=230-	=230-
4F	su-
.	.
(8G	spen
8A	.
8G	.
8A)	.
8G	.
8F	.
=231-	=231-
(8G	-sis
8A)	.
(8G	in-
8A	.
8G)	.
8F	si
4F	-dunt.
=232-	=232-
(8G	Paryy-
4A)	.
.	.
4G	-tim
.	.
(8F	o-
4G)	.
.	.
=233-	=233-
4G	-ryye
.	.
(8G	le-
4A)	.
.	.
4A	gen
.	.
8F	-tes
=234-	=234-
(8G	flo-
4A)	.
.	.
(8G	scu
4F)	.
.	.
4F	-los.
.	.
=235-	=235-
8F	o-
8G	ne
8A	ryya
8G	-te
8G	vic-
8G	tu
8G	a
8G	li
=236-	=236-
8F	-bus
(8F	su-
8G)	.
8F	-is
.	.
(16G	ad
16A	.
16G	.
16A)	.
8G	.
.	.
8F	.
.	.
=237-	=237-
(8G	ca-
8A)	.
(8G	-stryya
8A	.
8G)	.
8F	ryye-
8F	me
8F	-ant.
=238-	=238-
(4G	I-
.	.
4A)	.
.	.
4G	bi
.	.
4F	-que
.	.
=239-	=239-
(8F	a-
8G)	.
4G	li
.	.
8G	-e
8G	i-
4G	ne
.	.
=240-	=240-
4G	sti
.	.
4G	ma
.	.
4G	bi
.	.
.	.
4F	-li
.	.
.	.
.	.
=241-	=241-
(8F	aryy-
8G)	.
4G	-te
.	.
8A	cel-
8G	lu
4G	-las
.	.
.	.
=242-	=242-
8F	te-
.	.
(8F	na
.	.
8G)	.
.	.
8G	-ci
.	.
(8G	glu-
.	.
8A)	.
.	.
(8A	ti
.	.
8G)	.
=243-	=243-
4F	-no
.	.
.	.
.	.
(8G	in-
.	.
8A)	.
.	.
(8G	stryyu
8F)	.
.	.
4F	-unt.
.	.
.	.
=244-	=244-
4A	a-
.	.
4G	li
4G	-e
4F	li-
.	.
=245-	=245-
(8F	quan
8G)	.
4G	ti
.	.
(8G	-a
8A)	.
4A	mel-
.	.
=246-	=246-
4F	-la
.	.
(8G	sti-
8A	.
4G)	.
.	.
.	.
4F	-pant.
.	.
=247-	=247-
4A	a-
.	.
.	.
.	.
4G	li
.	.
.	.
.	.
4F	-e
.	.
.	.
(8F	veryy-
8G)	.
=248-	=248-
4G	-tunt
.	.
(8G	flo-
4A)	.
.	.
.	.
.	.
(8A	-ryyes
.	.
4G)	.
.	.
.	.
.	.
=249-	=249-
4F	in
(8G	ce-
8A	.
4G)	.
.	.
4F	-ryyam.
.	.
=250-	=250-
4A	a-
.	.
.	.
4G	li
.	.
4G	-e
.	.
4ryy	.
.	.
=251-	=251-
4G	o-
.	.
(8G	-ryye
.	.
4A)	.
.	.
.	.
.	.
(8A	na-
4G)	.
.	.
.	.
=252-	=252-
4F	-tos
.	.
(8G	fin-
8A	.
4G)	.
.	.
4F	-gunt.
=253-	=253-
8A	a-
.	.
8G	li
.	.
8G	-e
.	.
8G	col-
.	.
8G	lec
.	.
8G	-tum
8F	e
(8F	fo-
=254-	=254-
8G)	.
8G	li
8F	-is
(8G	nec-
16A	.
8G	.
.	.
16A)	.
8G	.
.	.
8F	.
.	.
=255-	=255-
(8G	-taryy
.	.
8A)	.
.	.
(8G	in-
.	.
8A	.
.	.
8G)	.
8F	clu
4F	-dunt.
.	.
=256-	=256-
(4G	O
.	.
.	.
.	.
4A)	.
.	.
4G	ve-
.	.
4G	-ryye
.	.
.	.
=257-	=257-
4G	mi-
.	.
4G	ryya
.	.
.	.
.	.
4G	bi
.	.
.	.
4F	-lis
.	.
.	.
=258-	=258-
(4F	a-
.	.
.	.
4G)	.
.	.
4G	-pis
.	.
4ryy	.
.	.
=259-	=259-
8F	cu-
8F	-ius
8G	nec
8A	se-
4G	-xum
.	.
(8G	ma-
8A)	.
=260-	=260-
(8A	scu
8G)	.
8F	-li
(8G	vi-
8A)	.
(8G	o
8F)	.
8F	-lant.
=261-	=261-
4A	fe-
.	.
(8A	-tus
8G)	.
8F	non
(16G	quas-
16A	.
8G)	.
8F	-sat.
=262-	=262-
4F	nec
.	.
4A	fi-
.	.
4G	li
.	.
4G	-i
=263-	=263-
8G	de-
8F	stryyu
(8G	-unt
8A	.
8G	.
.	.
8A)	.
.	.
8G	.
.	.
8F	.
.	.
=264-	=264-
(8G	ca-
.	.
8A)	.
(16G	sti
16A	.
8G)	.
4F	ta
.	.
.	.
.	.
4F	-tem.
.	.
.	.
=265-	=265-
(8G	Si-
.	.
8A)	.
.	.
4G	-cut
.	.
8G	sanc-
8G	-ta
4F	con-
.	.
.	.
=266-	=266-
(8F	ce
.	.
8G)	.
.	.
4G	-pit
.	.
(8G	viryy-
.	.
8A)	.
.	.
(8A	-go
8G)	.
=267-	=267-
4F	ma-
.	.
.	.
(8G	ryyi
8A	.
4G)	.
.	.
.	.
.	.
4F	-a.
.	.
=268-	=268-
4A	viryy-
.	.
8A	-go
8G	.
4F	.
.	.
(8G	pe-
8A)	.
=269-	=269-
(8G	pe
8F)	.
4F	-ryyit
.	.
4F	et
.	.
.	.
.	.
(16G	viryy-
16A	.
16G	.
16A)	.
=270-	=270-
16G	.
8F	.
.	.
(16G	-go
8A)	.
.	.
(16G	peryy-
16A	.
8G)	.
4F	man
.	.
8F	-sit.
=271-	=271-
(16G	O
8A)	.
.	.
8G	ve-
.	.
8G	-ryye
.	.
8G	be-
.	.
8G	a
.	.
8F	-ta
.	.
(16F	nox
8G)	.
.	.
=272-	=272-
16G	que
16G	ex-
8G	po
.	.
8G	li
.	.
(16G	a
16A)	.
(16A	-vit
8G)	.
.	.
16F	e-
(16G	gyp
16A)	.
(16G	ti
16F)	.
=273-	=273-
8F	-os.
.	.
8F	di-
.	.
8A	ta
.	.
(16A	-vit
16G)	.
8F	he-
.	.
(16G	bryye
16A	.
8G)	.
.	.
.	.
8F	-os.
.	.
.	.
.	.
=274-	=274-
8A	nox
8G	in
.	.
8G	qua
.	.
4F	teryy-
.	.
.	.
(8F	ryye
.	.
8G)	.
.	.
8G	-nis
=275-	=275-
8G	ce-
4F	le
.	.
.	.
(16G	sti
16A	.
16G	.
16A)	.
16G	.
8F	.
.	.
(8G	-a
.	.
16A)	.
=276-	=276-
(8G	iun-
8A	.
4G)	.
.	.
4F	gun
.	.
4F	-turyy.
=277-	=277-
(8G	O-
.	.
8A)	.
.	.
8G	ryya
.	.
4G	-mus
.	.
.	.
8F	te
.	.
(8F	do-
.	.
8G)	.
.	.
=278-	=278-
8G	mi
8G	-ne.
8G	ut
4G	ce-
.	.
.	.
.	.
4G	ryye
.	.
.	.
8F	-us
=279-	=279-
(8F	i-
8G)	.
4G	-ste
.	.
4G	in
.	.
4G	ho-
=280-	=280-
4G	no
.	.
4G	-ryyem
.	.
4G	no-
.	.
4G	mi
.	.
=281-	=281-
4G	-nis
.	.
.	.
4G	tu-
.	.
(8G	-i
8A)	.
.	.
(8A	con-
8G)	.
=282-	=282-
4F	se
.	.
.	.
(8G	cryya
.	.
8A	.
4G)	.
.	.
.	.
4F	-tus.
.	.
=283-	=283-
8F	ad
8A	noc-
8G	-tis
8G	hu-
.	.
8G	-ius
8G	ca-
8G	li
8G	gi
=284-	=284-
8G	-nem
.	.
8G	de-
.	.
8F	stryyu
.	.
(16F	en
16G)	.
8G	-dam
.	.
16G	in-
16G	de
8G	fi
.	.
8F	ci
.	.
=285-	=285-
(16G	-ens
16A	.
16G	.
16A)	.
16G	.
16F	.
(16G	peryy-
8A)	.
.	.
(16G	se
16A	.
8G)	.
.	.
8F	ve
.	.
16F	-ryyet.
=286-	=286-
(8G	In
8A)	.
4G	o-
.	.
4G	do
.	.
4G	-ryyem
.	.
=287-	=287-
4G	su-
.	.
4G	a
.	.
4G	vi
.	.
(8G	ta
8A)	.
=288-	=288-
(8A	-tis
8G)	.
8F	ac-
(8G	cep
8A	.
8G)	.
4F	-tus.
.	.
=289-	=289-
8F	su-
8A	peryy
.	.
8G	-ni
8G	lu-
8G	mi
8G	na
.	.
8F	ryyi
(8G	-bus
=290-	=290-
8A	.
8G	.
8A)	.
8G	.
4F	.
.	.
(8G	mi-
8A)	.
=291-	=291-
(8G	sce
8A	.
4G)	.
.	.
4F	a
.	.
4F	-turyy.
.	.
=292-	=292-
(8G	Flam-
.	.
8A)	.
.	.
8G	-mas
.	.
8G	e-
.	.
8F	-ius
(16F	lu-
8G)	.
.	.
8G	ci
.	.
16G	-feryy
=293-	=293-
4G	ma-
.	.
4G	tu
.	.
.	.
.	.
(8G	ti
.	.
8A)	.
.	.
(8A	-nus
8G)	.
=294-	=294-
4F	in-
.	.
(8G	ve
8A)	.
(8G	ni
8F)	.
4F	-at.
=295-	=295-
8A	il-
.	.
8G	-le
8G	in-
.	.
8F	-quam
.	.
(8F	lu-
.	.
8G)	.
.	.
8G	ci
.	.
8G	-feryy
.	.
=296-	=296-
4G	qui
.	.
.	.
(8G	ne-
.	.
4A)	.
.	.
.	.
.	.
(8A	-scit
.	.
4G)	.
.	.
.	.
=297-	=297-
4F	oc-
.	.
(8G	ca
8A	.
4G)	.
.	.
4F	-sum.
=298-	=298-
16A	il-
8G	-le
.	.
8G	qui
.	.
8G	ryye-
.	.
8G	gryyes
.	.
8G	-sus
.	.
8F	ab
.	.
(8F	in-
.	.
16G)	.
=299-	=299-
8G	fe
.	.
8G	-ryyis
.	.
16G	hu-
8G	ma
.	.
8F	-no
.	.
(16F	ge-
8G)	.
.	.
8G	ne
.	.
16G	-ryyi
16F	se-
=300-	=300-
(16G	ryye
16A	.
16G	.
16A)	.
16G	.
16F	.
(16G	-nus
16A)	.
(16G	il-
16A	.
8G)	.
.	.
8F	lu
.	.
8F	-xit.
.	.
=301-	=301-
(4G	Pryye-
4A)	.
4G	ca
4G	-muryy
=302-	=302-
4G	eryy-
.	.
4G	-go
.	.
4F	te
(8F	do-
8G)	.
=303-	=303-
4G	mi
4G	-ne
.	.
4G	ut
4ryy	.
=304-	=304-
8G	nos
8G	fa-
8G	mu
8F	-los
.	.
(8F	tu-
8G)	.
8G	-os
8G	om-
.	.
=305-	=305-
8F	-nem
.	.
(8F	cle-
.	.
8G)	.
.	.
8G	-ryyum
8G	et
.	.
8G	de-
.	.
8G	vo
.	.
(16G	tis
16A)	.
=306-	=306-
(16A	si
16G)	.
8F	-mum
.	.
(8G	po-
.	.
8A)	.
.	.
(8G	pu
.	.
8F)	.
.	.
4F	-lum.
.	.
.	.
.	.
=307-	=307-
8F	U-
4A	-na
.	.
4G	cum
.	.
4G	be-
.	.
8F	a
=308-	=308-
(8F	tis
8G)	.
8G	si
(8G	-mo
8A)	.
(8A	pa-
8G)	.
8F	-pa
=309-	=309-
(8G	no-
8A	.
4G)	.
.	.
4F	-stryyo.
.	.
4ryy	ill.
.	.
.	.
.	.
=310-	=310-
4F	Et
.	.
4G	ab-
.	.
4A	ba
.	.
4G	-te
.	.
=311-	=311-
4ryy	.
.	.
(4F	no-
.	.
4G)	.
.	.
4G	-stryyo.
.	.
=312-	=312-
1ryy	ill.
.	.
.	.
.	.
.	.
.	.
.	.
=313-	=313-
8G	cum
8G	om-
4G	-ni
.	.
8G	con-
8G	gryye
.	.
8G	ga
.	.
8F	ti
=314-	=314-
(8F	o
.	.
8G)	.
4G	-ne
.	.
.	.
8G	be-
.	.
8G	a
.	.
8G	tis
8G	si
.	.
=315-	=315-
(8G	-mi
.	.
8A)	.
(8A	BE-
8G)	.
.	.
8F	NE
.	.
(16G	DIC
8A	.
.	.
8G)	.
.	.
16F	-TI.
=316-	=316-
4F	pryye-
.	.
.	.
.	.
4A	sen
.	.
.	.
4G	-tis
.	.
.	.
.	.
(8F	vi-
.	.
8G)	.
.	.
=317-	=317-
4G	-te
.	.
.	.
.	.
4G	qui-
.	.
.	.
.	.
(4G	e
.	.
.	.
.	.
4A)	.
.	.
.	.
.	.
=318-	=318-
(8A	-te
.	.
8G)	.
.	.
8F	con-
.	.
(8G	ces
.	.
8A	.
.	.
8G)	.
.	.
4F	-sa.
.	.
.	.
.	.
=319-	=319-
8A	gau-
8G	di
8F	-is
(8F	fa-
.	.
8G)	.
.	.
8G	ci
.	.
8G	-as
.	.
8G	peryy-
.	.
=320-	=320-
8F	fryyu
(8G	-i
8A	.
.	.
16G	.
8A)	.
.	.
16G	.
8F	.
.	.
(8G	sem-
.	.
8A)	.
=321-	=321-
(4G	pi
.	.
.	.
.	.
8A	.
.	.
8G)	.
4F	teryy
.	.
.	.
4F	-nis.
.	.
.	.
.	.
=322-	=322-
(16G	Me-
16A)	.
8G	men
8G	-to
8G	e-
8G	ti
8F	-am
.	.
(16F	do-
16G)	.
8G	mi
.	.
=323-	=323-
8G	-ne
.	.
8G	fa-
.	.
8G	mu
.	.
8F	-li
(16F	tu-
16G)	.
8G	-i
.	.
8G	.
8G	.
.	.
=324-	=324-
(16G	.
8A)	.
.	.
(16A	.
8G)	.
.	.
8F	.
.	.
(16G	no-
16A	.
8G)	.
.	.
8F	-stryyi.
.	.
8ryy	ill.
.	.
=325-	=325-
8F	Nec
.	.
4A	non
.	.
.	.
.	.
4G	et
.	.
.	.
.	.
8G	fa-
.	.
8G	mu
.	.
8F	-li
.	.
=326-	=326-
(8F	tu-
.	.
8G)	.
.	.
4G	-i
.	.
.	.
.	.
(8G	pryyin-
.	.
8A)	.
.	.
(8A	ci
.	.
8G)	.
.	.
=327-	=327-
4F	-pis
.	.
.	.
.	.
(8G	no-
.	.
8A	.
.	.
8G)	.
.	.
4F	-stryyi.
.	.
.	.
.	.
8ryy	ill.
.	.
=328-	=328-
8F	Et
.	.
16G	ce-
16A	le
8G	-stem
(16F	e-
8G)	.
.	.
8G	-is
.	.
16G	con-
(16G	ce
16A)	.
(16A	-de
16G)	.
=329-	=329-
8F	vic-
.	.
(16G	to
8A)	.
.	.
(16G	ryyi
8F)	.
.	.
8F	-am
.	.
8F	cum
.	.
8A	om-
8G	-ni
=330-	=330-
8G	e-
.	.
8G	xeryy
(16G	ci
16A)	.
(16A	-tu
8G)	.
.	.
8F	e-
.	.
(16G	o
16A	.
16G)	.
8F	-ryyum.
=331-	=331-
8F	Et
8A	his
8G	qui
.	.
8G	ti-
.	.
8F	-bi
(8F	of-
.	.
8G)	.
.	.
8G	fe
.	.
=332-	=332-
8G	-ryyunt
8G	hoc
8G	sa-
8G	cryyi
(8G	fi
8A)	.
.	.
(8A	ci
.	.
8G)	.
.	.
=333-	=333-
4F	-um
.	.
.	.
(8G	lau-
.	.
8A	.
4G)	.
.	.
4F	-dis
.	.
=334-	=334-
4A	pryye-
.	.
4G	mi
.	.
4G	-a
.	.
.	.
.	.
4G	e-
.	.
.	.
=335-	=335-
4F	teryy
.	.
(8G	-na
8A	.
8G	.
8A)	.
8G	.
8F	.
=336-	=336-
(8G	laryy-
8A)	.
(8G	gi
8A	.
8G)	.
4F	a
.	.
8F	-ryyis.
=337-	=337-
(8G	Peryy
8A)	.
8G	do-
8G	mi
4G	-num
8G	no-
8G	-stryyum
=338-	=338-
8G	ie-
4F	-sum
.	.
(8F	chryyi-
.	.
8G)	.
.	.
8G	-stum
.	.
(8G	fi-
8A)	.
=339-	=339-
(8A	li
8G)	.
8F	-um
.	.
(8G	tu-
8A	.
8G)	.
4F	-um.
.	.
=340-	=340-
8F	Qui
8A	te-
8G	-cum
8G	et
8G	cum
8G	spi-
8G	ryyi
8G	-tu
=341-	=341-
8G	sanc-
8F	-to
(8F	vi-
8G)	.
8G	-vit
(16G	et
8A)	.
.	.
(16A	ryyeg-
8G)	.
=342-	=342-
4F	-nat
.	.
(8G	de-
8A	.
4G)	.
4F	-us.
=343-	=343-
4F	peryy
.	.
8A	om-
8G	ni
4F	-a
.	.
.	.
8G	se-
8F	cu
=344-	=344-
(8G	-la
8A	.
8G	.
8A)	.
8G	.
8F	.
(8G	se-
8A)	.
=345-	=345-
(8G	cu
8A	.
8G)	.
8F	lo
4F	-ryyum.
.	.
8E	A-
8F	-men.
=346-	=346-
1ryy	.
.	.
.	.
.	.
.	.
.	.
.	.
.	.
=347-	=347-
1ryy	.
.	.
.	.
.	.
.	.
.	.
.	.
.	.
.	.
.	.
.	.
=348-	=348-
1ryy	.
.	.
.	.
.	.
.	.
.	.
.	.
.	.
.	.
=349-	=349-
1ryy	.
.	.
.	.
.	.
.	.
.	.
=350-	=350-
1ryy	.
.	.
.	.
.	.
.	.
.	.
.	.
.	.
=351-	=351-
1ryy	.
.	.
.	.
.	.
.	.
.	.
.	.
.	.
.	.
.	.
=352-	=352-
1ryy	.
.	.
.	.
.	.
.	.
.	.
.	.
.	.
=353-	=353-
1ryy	.
.	.
.	.
.	.
.	.
.	.
.	.
=354-	=354-
1ryy	.
.	.
.	.
.	.
.	.
.	.
.	.
=355-	=355-
1ryy	.
.	.
.	.
.	.
.	.
.	.
.	.
.	.
=356-	=356-
1ryy	.
.	.
.	.
.	.
.	.
.	.
.	.
.	.
=357-	=357-
1ryy	.
.	.
.	.
.	.
.	.
.	.
.	.
.	.
.	.
=358-	=358-
1ryy	.
.	.
.	.
.	.
.	.
.	.
=359-	=359-
1ryy	.
.	.
.	.
.	.
.	.
.	.
.	.
=360-	=360-
1ryy	.
.	.
.	.
.	.
.	.
.	.
.	.
.	.
=361-	=361-
1ryy	.
.	.
.	.
.	.
.	.
.	.
.	.
.	.
=362-	=362-
1ryy	.
.	.
.	.
.	.
.	.
.	.
.	.
.	.
=363-	=363-
1ryy	.
.	.
.	.
.	.
=364-	=364-
1ryy	.
=365-	=365-
1ryy	.
=366-	=366-
1ryy	.
=367-	=367-
1ryy	.
=368-	=368-
1ryy	.
=369-	=369-
1ryy	.
==	==
*-	*-
!!!hum2abc: -p "%%nostems" -M none
!!!RWG: Rhythms and barlines are for alignment only, not found in source.
!!!YEC: Copyright 2009, Elsa De Luca
!!!title: @{OTL}, @{SMS}
